img/svg/footer-youtube.svg

<svg width="14" height="9" viewBox="0 0 14 9" fill="none" xmlns="http://www.w3.org/2000/svg">
<path d="M13.1406 1.40625C13.2344 1.82812 13.3281 2.48438 13.375 3.32812L13.3984 4.5L13.375 5.67188C13.3281 6.5625 13.2344 7.19531 13.1406 7.61719C13.0469 7.89844 12.9062 8.13281 12.7188 8.32031C12.5078 8.53125 12.2734 8.67188 11.9922 8.74219C11.5703 8.85938 10.6328 8.92969 9.13281 8.97656L7 9L4.86719 8.97656C3.36719 8.92969 2.40625 8.85938 2.00781 8.74219C1.72656 8.67188 1.46875 8.53125 1.28125 8.32031C1.07031 8.13281 0.929688 7.89844 0.859375 7.61719C0.742188 7.19531 0.671875 6.5625 0.625 5.67188L0.601562 4.5C0.601562 4.17188 0.601562 3.77344 0.625 3.32812C0.671875 2.48438 0.742188 1.82812 0.859375 1.40625C0.929688 1.125 1.07031 0.890625 1.28125 0.679688C1.46875 0.492188 1.72656 0.351562 2.00781 0.257812C2.40625 0.164062 3.36719 0.0703125 4.86719 0.0234375L7 0L9.13281 0.0234375C10.6328 0.0703125 11.5703 0.164062 11.9922 0.257812C12.2734 0.351562 12.5078 0.492188 12.7188 0.679688C12.9062 0.890625 13.0469 1.125 13.1406 1.40625ZM5.6875 6.42188L9.03906 4.5L5.6875 2.60156V6.42188Z" fill="white"/>
</svg>

<svg width="14" height="9" viewBox="0 0 14 9" fill="none" xmlns="http://www.w3.org/2000/svg"><path d="M13.14 1.406c.094.422.188 1.078.235 1.922l.023 1.172-.023 1.172c-.047.89-.14 1.523-.234 1.945a1.766 1.766 0 01-.422.703 1.53 1.53 0 01-.727.422c-.422.117-1.36.188-2.86.235L7 9l-2.133-.023c-1.5-.047-2.46-.118-2.86-.235-.28-.07-.538-.21-.726-.422a1.36 1.36 0 01-.422-.703C.742 7.195.672 6.563.625 5.672L.602 4.5c0-.328 0-.727.023-1.172.047-.844.117-1.5.234-1.922.07-.281.211-.515.422-.726.188-.188.446-.328.727-.422.398-.094 1.36-.188 2.86-.235L7 0l2.133.023c1.5.047 2.437.141 2.86.235.28.094.515.234.726.422.187.21.328.445.422.726zM5.688 6.422L9.04 4.5 5.688 2.602v3.82z" fill="#fff"/></svg>
